source/icons/burger-open.svg

<svg width="60" height="60" viewBox="0 0 60 60" fill="none" xmlns="http://www.w3.org/2000/svg">
<path d="M50.125 27.5H9.875C8.56332 27.5 7.5 28.5633 7.5 29.875V30.125C7.5 31.4367 8.56332 32.5 9.875 32.5H50.125C51.4367 32.5 52.5 31.4367 52.5 30.125V29.875C52.5 28.5633 51.4367 27.5 50.125 27.5Z" fill="#0F805D"/>
<path d="M50.125 40H9.875C8.56332 40 7.5 41.0633 7.5 42.375V42.625C7.5 43.9367 8.56332 45 9.875 45H50.125C51.4367 45 52.5 43.9367 52.5 42.625V42.375C52.5 41.0633 51.4367 40 50.125 40Z" fill="#0F805D"/>
<path d="M50.125 15H9.875C8.56332 15 7.5 16.0633 7.5 17.375V17.625C7.5 18.9367 8.56332 20 9.875 20H50.125C51.4367 20 52.5 18.9367 52.5 17.625V17.375C52.5 16.0633 51.4367 15 50.125 15Z" fill="#0F805D"/>
</svg>

<svg viewBox="0 0 60 60" fill="none" xmlns="http://www.w3.org/2000/svg"><path d="M50.13 27.5h-40.26a2.37 2.37 0 0 0-2.37 2.38v.25a2.37 2.37 0 0 0 2.38 2.37h40.24a2.37 2.37 0 0 0 2.38-2.38v-.25a2.37 2.37 0 0 0-2.38-2.37Zm0 12.5h-40.26a2.37 2.37 0 0 0-2.37 2.38v.24a2.37 2.37 0 0 0 2.38 2.38h40.24a2.37 2.37 0 0 0 2.38-2.38v-.24a2.37 2.37 0 0 0-2.38-2.38Zm0-25h-40.26a2.37 2.37 0 0 0-2.37 2.38v.25a2.37 2.37 0 0 0 2.38 2.37h40.24a2.37 2.37 0 0 0 2.38-2.38v-.25a2.37 2.37 0 0 0-2.38-2.37Z" fill="#0F805D"/></svg>
